packages/ffe-icons/icons/open/400/sm/airline_seat_recline_normal.svg

<svg xmlns="http://www.w3.org/2000/svg" height="20" viewBox="0 -960 960 960" width="20"><path d="M540-192H312q-29 0-50.5-21.5T240-264v-372q0-15.3 10.29-25.65Q260.58-672 275.79-672t25.71 10.35Q312-651.3 312-636v372h228q15.3 0 25.65 10.29Q576-243.42 576-228.21t-10.35 25.71Q555.3-192 540-192Zm-96.25-504q-34.75 0-59.25-24.75t-24.5-59.5q0-34.75 24.75-59.25t59.5-24.5q34.75 0 59.25 24.75t24.5 59.5q0 34.75-24.75 59.25t-59.5 24.5ZM624-180v-132H456q-39.6 0-67.8-28.2Q360-368.4 360-408v-180q0-35.28 24.3-59.64Q408.61-672 443.8-672q35.2 0 59.7 26.5T528-583v175h96q30 0 52 21t20 51v156q0 15.3-10.29 25.65Q675.42-144 660.21-144t-25.71-10.35Q624-164.7 624-180Z"/></svg>

<svg xmlns="http://www.w3.org/2000/svg" height="20" viewBox="0 -960 960 960" width="20"><path d="M540-192H312q-29 0-50.5-21.5T240-264v-372q0-15.3 10.289-25.65 10.29-10.35 25.5-10.35Q291-672 301.5-661.65 312-651.3 312-636v372h228q15.3 0 25.65 10.289 10.35 10.29 10.35 25.5Q576-213 565.65-202.5 555.3-192 540-192Zm-96.248-504Q409-696 384.5-720.748t-24.5-59.5Q360-815 384.748-839.5t59.5-24.5Q479-864 503.5-839.252t24.5 59.5Q528-745 503.252-720.5t-59.5 24.5ZM624-180v-132H456q-39.6 0-67.8-28.2Q360-368.4 360-408v-180q0-35.28 24.303-59.64t59.5-24.36Q479-672 503.5-645.5T528-583v175h96q30 0 52 21t20 51v156q0 15.3-10.289 25.65-10.29 10.35-25.5 10.35Q645-144 634.5-154.35 624-164.7 624-180Z"/></svg>
